img/svg/profile-account.svg

<svg width="24" height="24" viewBox="0 0 24 24" fill="none" xmlns="http://www.w3.org/2000/svg">
    <path
        d="M3.8 19.4003C4.14436 19.0146 6.45785 17.1976 7.60775 16.3019C8.02656 15.9757 8.54027 15.8003 9.07114 15.8003C10.3548 15.8003 12.8284 15.8003 14.1182 15.8003C14.6553 15.8003 15.1741 15.9832 15.6066 16.3017C17.0913 17.3955 18.4833 18.2106 20 19.4003M5.6 21.2H17.6C19.5882 21.2 21.2 19.5882 21.2 17.6V5.6C21.2 3.61177 19.5882 2 17.6 2H5.6C3.61177 2 2 3.61177 2 5.6V17.6C2 19.5882 3.61177 21.2 5.6 21.2ZM15.0385 8.87204C15.0385 7.04053 13.4924 5.54408 11.6 5.54408C9.70762 5.54408 8.16145 7.04053 8.16145 8.87204C8.16145 10.7036 9.70762 12.2 11.6 12.2C13.4924 12.2 15.0385 10.7036 15.0385 8.87204Z"
        stroke="#46B75B" stroke-width="2" />
</svg>

<svg width="24" height="24" viewBox="0 0 24 24" fill="none" xmlns="http://www.w3.org/2000/svg"><path d="M3.8 19.4c.344-.385 2.658-2.202 3.808-3.098A2.377 2.377 0 019.07 15.8h5.047c.537 0 1.056.183 1.489.502C17.09 17.395 18.483 18.21 20 19.4M5.6 21.2h12a3.6 3.6 0 003.6-3.6v-12A3.6 3.6 0 0017.6 2h-12A3.6 3.6 0 002 5.6v12a3.6 3.6 0 003.6 3.6zm9.439-12.328c0-1.831-1.547-3.328-3.439-3.328-1.892 0-3.439 1.497-3.439 3.328 0 1.832 1.547 3.328 3.439 3.328 1.892 0 3.439-1.496 3.439-3.328z" stroke="#46B75B" stroke-width="2"/></svg>
